X:1
T:The Love of God
T:The Love of God
T:T. E. Hall
T:Mrs. Anna M. Ray, 1918
T:Public Domain Courtesy of the Cyber Hymnal™
C:T. E. Hall
Z:Public Domain
Z:Courtesy of the Cyber Hymnal™
%%score ( 1 2 ) ( 3 4 )
L:1/8
Q:1/4=110
M:4/4
K:Bb
V:1 treble 
V:2 treble 
V:3 bass 
V:4 bass 
V:1
 [DF]2 | [DB]3 [Ec] [Fd]2 [Ff]2 | [Fd]2 [DF]4 [DB]2 | [EB]3 [EG] (cB) [EG]2 | [DF]6 [DF]2 | %5
w: 1.~The|love of God we|ne- ver Can|ful- ly com- * pre-|hend; But|
w: 2.~O|it was love that|sought us In|dark- ness and * dis-|tress, And|
w: 3.~His|Spir- it He has|giv- en, O|gift of love * un-|known! ’Twill|
 [Fd]3 [Ec] [DB]2 [^CG]2 | [DF]2 [^CB]4 [DB][DB] | [CA]3 [CB] [Cc]2 [C=E]2 | [CF]6 || %9
w: oh, we’ll praise it|ev- er, Change- less,|faith- ful with- out|end!|
w: love un- told that|bought us Par- don,|peace and right- eous-|ness.|
w: lead us home to|Hea- ven T- o|joys a- round the|throne!|
"^Refrain" F2 | [=EG]2 [_EA]2 [DB]2 z [Fd] | [Bd]2 [Ac]2 [GB]2 z [DB] | [EB]2 [EG]2 [GB]2 [EG]2 | %13
w: ||||
w: O|love of God, O|sav- ing love, That|saw our sin and|
w: ||||
 B6 [Bf]2 | [Bf]3 [Fe] [Fd][Fc][FB][Fc] | ([Fd]2 [Ge]2 [Fd]2) [Ec]2 | %16
w: |||
w: woe; And|sent the Son from Heav’n a-|bove * * That|
w: |||
 [DB]2 [DF]2 !fermata![Ec]2 [EB]2 | B6 |] %18
w: ||
w: we His love might|know!|
w: ||
V:2
 x2 | x8 | x8 | x4 G2 x2 | x8 | x8 | x8 | x8 | x6 || F2 | x8 | x8 | x8 | (D2 ^C2 D2) x2 | x8 | x8 | %16
 x8 | (D2 ^C2 D2) |] %18
V:3
 [B,,B,]2 | [B,,F,]3 [B,,F,] [B,,B,]2 [B,,D]2 | [B,,B,]2 [B,,B,]4 [B,,F,]2 | %3
 [E,G,]3 [E,B,] [E,E]2 [E,B,]2 | [B,,B,]6 [B,,B,]2 | [B,,B,]3 [B,,F,] [B,,F,]2 [B,,B,]2 | %6
 [B,,B,]2 [G,,B,]4 [B,,F,][B,,F,] | [C,F,]3 [C,G,] [C,A,]2 [C,B,]2 | [F,A,]6 || z2 | z8 | %11
 z6 z [B,,F,] | [E,G,]2 [E,B,]2 [E,E]2 [E,B,]2 | B,2 G,2 F,2 [B,,D]2 | %14
 [B,,D]3 [B,,C] [B,,B,][C,A,][D,B,][F,A,] | B,6 [E,G,]2 | F,2 [F,B,]2 !fermata![F,A,]2 F,2 | %17
 (F,2 G,2 F,2) |] %18
V:4
 x2 | x8 | x8 | x8 | x8 | x8 | x8 | x8 | x6 || x2 | x8 | x8 | x8 | B,,6 x2 | x8 | B,6 x2 | %16
 F,2 x2 F,2 x2 | B,,6 |] %18

